X: 34323
T: Return Of Spring, The
R: barndance
M: 4/4
K: Gmajor
M:2/4
G|d2- dB|G2- GD|G>B ed|dc cB|
c2- cA|F2- FE|F>A ed|dc Bc|
d2- dB|G2- GD|G>B ed|dc c>B|
Af f>B|Ae e>c|dB c/B/A/F/|GF G2||
g2- ge|ff f>d|ee eB|d2- dB|
G>B ed|F2- FD|F>A ed|G2- G/B/c/d/|
gg g>e|ff f>d|ee eB|d2- dB|
G>B ed|F2- Fe/f/|gf ef|g2 g>e||
|:dB g>f|ee a>g|fd ef|ed BG/B/|
dB g>f|ee a>g|fd ef|1 g2 g>e:|2 g2 ge||

